portfolio/adventure/img/svg/plug.svg

<svg xmlns="http://www.w3.org/2000/svg" width="65" height="65"><path d="M51.577 47.71c-8.459 8.455-21.699 9.174-31.003 2.207L6.945 63.54a4.073 4.073 0 0 1-5.759 0 4.07 4.07 0 0 1 0-5.757L14.815 44.16c-6.97-9.3-6.251-22.535 2.209-30.991l8.158-8.155 5.759 5.756 9.598-9.594a4.073 4.073 0 0 1 5.759 0 4.069 4.069 0 0 1 0 5.757L36.7 16.527 48.218 28.04l9.598-9.594a4.07 4.07 0 1 1 5.759 5.757l-9.598 9.593 5.759 5.757-8.159 8.157z" fill-rule="evenodd"/></svg>

<svg xmlns="http://www.w3.org/2000/svg" xmlns:xlink="http://www.w3.org/1999/xlink" preserveaspectratio="xMidYMid" width="65" height="65" viewbox="0 0 65 65">
  <defs>
  </defs>
  <path d="M51.577,47.710 C43.118,56.165 29.878,56.884 20.574,49.917 C20.574,49.917 6.945,63.540 6.945,63.540 C5.355,65.130 2.777,65.130 1.186,63.540 C-0.404,61.950 -0.404,59.373 1.186,57.783 C1.186,57.783 14.815,44.160 14.815,44.160 C7.845,34.860 8.564,21.625 17.024,13.169 C17.024,13.169 25.182,5.014 25.182,5.014 C25.182,5.014 30.941,10.770 30.941,10.770 C30.941,10.770 40.539,1.176 40.539,1.176 C42.130,-0.414 44.708,-0.414 46.298,1.176 C47.889,2.765 47.889,5.343 46.298,6.933 C46.298,6.933 36.700,16.527 36.700,16.527 C36.700,16.527 48.218,28.040 48.218,28.040 C48.218,28.040 57.816,18.446 57.816,18.446 C59.407,16.857 61.985,16.857 63.575,18.446 C65.165,20.035 65.165,22.613 63.575,24.203 C63.575,24.203 53.977,33.796 53.977,33.796 C53.977,33.796 59.736,39.553 59.736,39.553 C59.736,39.553 51.577,47.710 51.577,47.710 Z" id="plug" fill-rule="evenodd"/>
</svg>
